svg/color/ssol.svg

<svg xmlns="http://www.w3.org/2000/svg" width="1250" height="500" fill="none" viewBox="0 0 1250 500"><g clip-path="url(#ssol_svg-a)"><path fill="#084D3E" d="M1250 0H0v500h1250z"/><path fill="#fff" d="M273.635 145.93h136.16L387.4 187.386H251.241zm-23.29 165.827h114.66l-22.394 41.456H227.95zm-20.895-82.915h180.346l-22.102 41.456H207.348zm-27.477-41.455 49.268-.001-22.395 41.457h-49.268zM387.4 270.299h43.893l-22.394 41.457-43.894.001zm186.014-.869v27.03l-19.236 11.11h-43.115v-14.427h46.266v-20.396h-27.03l-19.236-11.111v-25.869l19.236-11.11h41.457v14.427h-44.608v19.236h27.03zm97.031 27.859-19.236 11.11h-32.005l-19.236-11.11v-62.351l19.236-11.11h32.005l19.236 11.11zm-54.392-59.034v55.718h38.306v-55.718zm100.153 69.315-19.236-11.11V186.517h16.086v106.626h19.899v14.427zm46.164-33.994v20.397h33.331v-20.397zm3.15 34.823-19.236-11.11v-27.03l19.236-11.11h30.181v-20.065h-41.125v-14.427h37.974l19.236 11.11v72.632h-4.311l-11.774-6.798-11.774 6.798zm80.452 32.337 14.427-36.98-32.004-79.099h16.085l23.547 59.034h.332l23.382-59.034h16.085l-46.1 116.079zm143.864-47.593v14.427H943.57l-19.235-11.11v-61.522l19.235-11.11h27.03l19.236 11.11v36.814H940.42v21.391zm-49.416-54.888v19.07h33.331v-19.07zm122.16.829h-30.18v68.486h-16.08v-82.913h12.1l3.98 6.799 11.78-6.799h18.4z"/></g><defs><clipPath id="ssol_svg-a"><path fill="#fff" d="M0 0h1250v500H0z"/></clipPath></defs></svg>

<svg width="1250" height="500" viewBox="0 0 1250 500" fill="none" xmlns="http://www.w3.org/2000/svg">
<g clip-path="url(#clip0_8457_1265)">
<path d="M1250 0H0V500H1250V0Z" fill="#084D3E"/>
<path d="M273.635 145.93H409.795L387.4 187.386H251.241L273.635 145.93Z" fill="white"/>
<path d="M250.345 311.757H365.005L342.611 353.213H227.95L250.345 311.757Z" fill="white"/>
<path d="M229.45 228.842H409.796L387.694 270.298H207.348L229.45 228.842Z" fill="white"/>
<path d="M201.973 187.387L251.241 187.386L228.846 228.843H179.578L201.973 187.387Z" fill="white"/>
<path d="M387.4 270.299H431.293L408.899 311.756L365.005 311.757L387.4 270.299Z" fill="white"/>
<path d="M573.414 269.43V296.46L554.178 307.57H511.063V293.143H557.329V272.747H530.299L511.063 261.636V235.767L530.299 224.657H571.756V239.084H527.148V258.32H554.178L573.414 269.43ZM670.445 297.289L651.209 308.399H619.204L599.968 297.289V234.938L619.204 223.828H651.209L670.445 234.938V297.289ZM616.053 238.255V293.973H654.359V238.255H616.053ZM716.206 307.57L696.97 296.46V186.517H713.056V293.143H732.955V307.57H716.206ZM762.37 273.576V293.973H795.701V273.576H762.37ZM765.52 308.399L746.284 297.289V270.259L765.52 259.149H795.701V239.084H754.576V224.657H792.55L811.786 235.767V308.399H807.475L795.701 301.601L783.927 308.399H765.52ZM845.972 340.736L860.399 303.756L828.395 224.657H844.48L868.027 283.691H868.359L891.741 224.657H907.826L861.726 340.736H845.972ZM989.836 293.143V307.57H943.57L924.335 296.46V234.938L943.57 223.828H970.6L989.836 234.938V271.752H940.42V293.143H989.836ZM940.42 238.255V257.325H973.751V238.255H940.42ZM1062.58 239.084H1032.4V307.57H1016.32V224.657H1028.42L1032.4 231.456L1044.18 224.657H1062.58V239.084Z" fill="white"/>
</g>
<defs>
<clipPath id="clip0_8457_1265">
<rect width="1250" height="500" fill="white"/>
</clipPath>
</defs>
</svg>
